X:1
T:Angelus Domini
T:Nicolas Gombert edit BMarble
T:Angelus Domini
T:Copyright © 2016 by CPDL.  This edition can be fully distributed, duplicated, performed, and recorded 
T:Copyright © 2016 by CPDL.  This edition can be fully distributed, duplicated, performed, and recorded 
T:Copyright © 2016 by CPDL.  This edition can be fully distributed, duplicated, performed, and recorded 
T:Copyright © 2016 by CPDL.  This edition can be fully distributed, duplicated, performed, and recorded 
T:Copyright © 2016 by CPDL.  This edition can be fully distributed, duplicated, performed, and recorded 
T:Copyright © 2016 by CPDL.  This edition can be fully distributed, duplicated, performed, and recorded 
T:Copyright © 2016 by CPDL.  This edition can be fully distributed, duplicated, performed, and recorded 
T:Copyright © 2016 by CPDL.  This edition can be fully distributed, duplicated, performed, and recorded 
T:Copyright © 2016 by CPDL.  This edition can be fully distributed, duplicated, performed, and recorded 
C:Nicolas Gombert
C:edit BMarble
Z:Copyright © 2016 by CPDL.  This edition can be fully distributed, duplicated, performed, and recorded
%%score [ 1 2 3 4 ]
L:1/8
Q:1/4=56
M:2/1
K:F
V:1 treble nm="Soprano" snm="S."
V:2 treble nm="Alto" snm="A."
V:3 treble-8 transpose=-12 nm="Tenor" snm="T."
V:4 bass nm="Baritone" snm="Bar."
V:1
"^An angel of the Lord said to the shepherds:I bring you news of a great joy which will be for all people,for to you is born this day the Savior of the world,who is Christ the Lord, in the city of David.And you will find the babe wrapped in swaddling clothesand lying in a manger." c12 c4 | %1
w: An- ge-|
 c8 d8 | c8 A8 | z4 c4 c4 B4 | A8 z4 B4 | B4 A4 (G6 A2 | B2 c2 d8) c4- | c2 d2 e6 d2 c2 B2 | %8
w: lus Do-|mi- ni|ad pa- sto-|res, ad|pa- sto- res _|_ _ _ a-||
 A2 B2 c2 A2 B2 A2 G2 F2 | G8 A8- | A16 | z8 z4 c4 | c4 B4 c8 | G2 A2 B2 c2 d6 cB | %14
w: |* it,|_|ad|pa- sto- res|a- * * * * * *|
 A6 G2 F2 E2 F2 D2 | E2 C2 F8 E4 | F16 | z4 F4 c8- | c4 B4 c4 A4 | G4 G4 A4 B4 | c8 G4 c4 | %21
w: ||it:|An- nun-|* ci- o vo-|bis gau- di- um|ma- gnum, ma-|
 d6 cB A2 G2 c4- | c4 =B4 c8 | z4 F4 c8- | c4 _B4 c4 A4 | G8 z8 | z4 G4 A4 c4 | c4 =B4 c4 A4 | %28
w: |* * gnum,|an- nun-|* ci- o vo-|bis|quod e- rit|o- mni po- pu-|
 G16 | z8 z4 G4 | A4 c4 c4 =B4 | c8 A4 G4- | (G2 F2 E4) D8 | C4 G4 A4 c4- | c4 =B4 c4 c4 | %35
w: lo,|quod|e- rit o- mni|po- pu- lo,|_ _ _ o-|mni, o- mni po-|* pu- lo qui-|
 c4 c4 d8 | c4 A8 G4 | B4 B4 A8 | z4 A8 G4 | A4 B4 (c6 BA) | G8 F8 | z4 A4 B4 c4 | (d12 A4 | %43
w: a na- tus|est vo- bis|ho- di- e,|qui- a|na- tus est _ _|vo- bis|Sal- va- tor|mun- *|
 B8) A8- |S A16- | A8 z8 | z16 | z8 z4 F4- | F4 F4 G8 | (F6 G2 A4) B4- | B2 A2 A8 G4 | A8 z8 | %52
w: * di.|_|||Qui|_ est Chri-|stus _ _ Do-|* * * mi-|nus,|
 z4 A8 G4 | F4 D4 E8 | F8 G8 | z8 z4 d4- | d4 c4 B4 G4 | A4 G6 F2 F4- | F4 E4 F8 | z4 d8 c4 | %60
w: in ci-|vi- ta- te|Da- vid,|in|_ ci- vi- ta-|te Da- * *|* * vid,|in ci-|
 B4 G4 A4 G4- | G2 F2 F8 E4 | F16!fine! || A16 | A12 A4 | A8 A8 | A16 | A16 | B16 | A4 c4 c4 c4 | %70
w: vi- ta- te Da-||vid.|Et|in- ve-|ni- e-|tis|in-|fan-|tem pan- nis in-|
 d4 c4 A8 | z4 A4 A4 A4 | B4 A8 G2 F2 | E4 D2 E2 F2 G2 A4- | A4 G2 F2 G6 A2 | B4 A4 A8 | %76
w: vo- lu- tum,|pan- nis in-|vo- lu- * *|||* * tum,|
 z4 A6 G2 F4- | (F4 E4) F8- | F8 z8 | z16 | z16 | z16 | z8 c8 | d4 e4 c4 f4- | f4 (e4 d4) c4- | %85
w: in- vo- lu-|* * tum,|_||||et|po- si- tum in|_ prae- * se-|
 c4 B2 A2 G4 c4- | c4 =B4 c8 | z16 | z16 | z8 z4 c4 | d8 e4 c4 | d6 c2 (A2 B2 c4-) | %92
w: |* pi- o,|||et|po- si- tum|in prae- se- * *|
 c4 B4 A8!D.S.! |] %93
w: * pi- o,|
V:2
 z16 | z16 | F12 F4 | F8 G8 | F8 D8 | z4 F4 F4 E4 | D6 E2 F2 G2 A4- | A2 G2 G6 F2 E2 D2 | %8
w: ||An- ge-|lus Do-|mi- ni|ad pa- sto-|res, _ _ _ _|_ _ _ _ _ _|
 E2 C2 G8 F4- | (F4 E4) F8- | F16 | z4 D4 D4 C4 | D8 C6 D2 | _E2 F2 G6 F2 F4- | F4 =E2 D2 C4 B,4 | %15
w: * * * a-|* * it,|_|ad pa- sto-|res a- *|||
 C4 D4 C8 | A,8 z4 F4 | F12 E4 | F4 D4 C4 F4- | F4 E4 D4 D4 | A,2 B,2 C2 D2 E2 F2 G4- | %21
w: |it: An-|nun- ci-|o vo- bis gau-|* di- um ma-||
 G2 F2 F2 ED E4 F4 | D8 C8 | z16 | z16 | z4 C4 D4 F4 | F4 E4 F8 | D8 C8 | z4 D4 E4 G4 | %29
w: * * * * * * gnum,|ma- gnum|||quod e- rit|o- mni po-|pu- lo,|quod e- rit|
 G4 F4 G4 G4 | F16 | z16 | z8 z4 G4 | G4 E8 F4 | G8 z8 | z4 E8 D4 | F4 F4 _E4 E4- | %37
w: o- mni po- pu-|lo,||o-|mni po- pu-|lo,|qui- a|na- tus est vo-|
 E4 D4 (F6 _ED) | C4 F8 =E4 | F8 (_E6 D2 | B,4) C4 D4 D4 | =E4 F4 E8 | (D6 E2 F2 G2 F4-) | %43
w: * bis, vo- * *|bis ho- di-|e, ho- *|* di- e Sal-|va- tor mun-||
 (F4 E4) F8- | F8 z8 | z4 F8 F4 | G4 F8 E2 D2 | C6 D2 E4 F4- | (F2 E2 D8) !courtesy!^C4 | %49
w: * * di.|_|Qui est|Chri- stus _ _|_ _ _ Do-|* * * mi-|
 D8 z4 F4- | (F2 E2 D2 C2 D4) E4 | F8 z4 F4- | F4 E4 D4 D4 | C4 B,4 A,8 | z4 C4 D6 E2 | F4 E4 D8 | %56
w: nus, Do-|* * * * * mi-|nus in|_ ci- vi- ta-|te Da- vid,|in ci- vi-|ta- te Da-|
 A,8 z4 C4 | D4 E4 F4 D4 | C8 A,8- | A,16 | z4 C4 D4 E4 | F4 D4 C8 | C16 || F16 | F12 F4 | F8 F8 | %66
w: vid, in|ci- vi- ta- te|Da- vid,|_|in ci- vi-|ta- te Da-|vid.|Et|in- ve-|ni- e-|
 E16 | F16 | (D12 E4) | F16- | F16- | F16 | z4 F4 F4 F4 | G4 F4 D2 E2 F2 D2 | E4 F8 E4 | F8 z4 F4 | %76
w: tis|in-|fan- *|tem|_||pan- nis in-|vo- lu- * * * *||tum, pan-|
 E4 C6 A,2 (B,4 | C8) A,8- | A,16 | z16 | z16 | z16 | z8 z4 F4- | F4 G4 A4 F4 | G6 G2 F4 E4 | %85
w: nis in- vo- lu-|* tum,|_||||et|_ po- si- tum|in prae- se- *|
 D2 E2 F2 D2 E4 F4 | D8 z4 F4- | F4 G4 A4 F4 | G8 A8- | (A4 G4) F4 E4 | (D8 C8) | z8 z4 C4 | %92
w: * * * * * pi-|o, et|_ po- si- tum|in prae-|* * se- pi-|o, _|prae-|
 D4 E4 F8 |] %93
w: se- pi- o,|
V:3
 z16 | z16 | z16 | z16 | z16 | z16 | z16 | c12 c4 | c8 d8 | c8 A8- | A8 z4 c4 | c4 B4 A8 | %12
w: |||||||An- ge-|lus Do-|mi- ni|_ ad|pa- sto- res,|
 z4 B4 B4 A4 | G6 A2 B2 c2 d4- | d2 c2 A2 B2 c2 B2 A2 G2 | A4 B4 G8 | F16 | z16 | z16 | z16 | %20
w: ad pa- sto-|res _ _ _ _|_ _ _ _ _ _ _ _|* * a-|it:||||
 z4 F4 c8- | c4 B4 c4 A4 | G4 G4 A6 B2 | c8 G8 | z4 d4 e4 d4- | d4 (c8 =B4) | c8 z8 | z4 G4 A4 c4 | %28
w: An- nun-|* ci- o vo-|bis gau- di- um|ma- gnum,|gau- di- um|_ ma- *|gnum|quod e- rit|
 c4 =B4 c8 | A8 G8 | z4 c4 d4 f4 | f4 e4 f4 d4 | (c8 G8) | z4 c4 c4 c4 | d8 c4 A4- | A4 G4 B4 B4 | %36
w: o- mni po-|pu- lo,|quod e- rit|o- mni po- pu-|lo, _|qui- a na-|tus est vo-|* bis ho- di-|
 A6 B2 c6 BA | G2 F2 G4 F8 | z4 A4 B8 | A16 | z4 G4 (A6 B2) | c8 z4 c4 | G2 A2 B2 c2 d2 c2 c4- | %43
w: e, _ _ _ _|_ _ _ _|ho- di-|e|Sal- va- *|tor mun-||
 c4 B4 c8 | z4 c8 c4 | d4 c4 A8 | B8 A8- | A8 z4 (A4 | B4) A4 (G6 A2 | B4) A8 d4- | %50
w: * * di.|Qui est|Chri- stus Do-|mi- nus,|_ qui|_ est Chri- *|* stus Do-|
 (d2 c2 B2 A2) B8 | A8 z4 F4 | G4 A4 B8 | A4 (d8 c4 | B4 A4) G8 | z4 c4 (d6 e2 | f4) e4 d4 c4- | %57
w: * * * * mi-|nus, in|ci- vi- ta-|te Da- *|* * vid,|in ci- *|* vi- ta- *|
 c2 B2 A2 G2 A4 B4 | G8 F4 c4 | (d6 e2 f4) e4 | d4 c6 B2 A2 G2 | A4 B4 G8 | F16 || c16 | c12 c4 | %65
w: * * * * * te|Da- vid, in|ci- * * vi-|ta- * * * *|* te Da-|vid.|Et|in- ve-|
 c8 d8 | c16 | (c6 B2 A2 G2 c4-) | c4 (B2 A2 B8) | c16 | z4 c4 c4 c4 | d4 c4 A8 | z16 | z16 | %74
w: ni- e-|tis|in- * * * *|* fan- * *|tem|pan- nis in-|vo- lu- tum,|||
 c8 c4 c4 | d4 c4 (A2 B2 c2 A2 | B4) A4 F8 | G8 F8 | z4 c8 d4 | e4 c4 f8 | (e4 d4) e8 | %81
w: pan- nis in-|vo- lu- tum, _ _ _|_ in- vo-|lu- tum,|et po-|si- tum in|prae- * se-|
 d6 e2 f4 e4 | d4 c8 B2 A2 | G4 c8 =B4 | c8 z8 | z16 | z16 | z8 c4 d4- | d4 e4 c4 f4- | %89
w: ||* * pi-|o,|||et po-|* si- tum in|
 f4 (e4 d4) c4- | (c4 =B4 c4) A4 | (G8 F8) | z16 |] %93
w: _ prae- * se-|* * * pi-|o, _||
V:4
 z16 | z16 | z16 | z16 | z16 | z16 | z16 | z16 | z16 | z8 F,8- | F,4 F,4 F,8 | G,8 F,8 | %12
w: |||||||||An-|* ge- lus|Do- mi-|
 D,8 z4 F,4 | F,4 _E,4 (D,6 =E,2 | F,2 G,2 A,8) D,4 | C,4 B,,4 C,8 | F,16- | F,8 z8 | z16 | z16 | %20
w: ni ad|pa- sto- res, _|_ _ _ pas-|to- res a-|it:|_|||
 z16 | z16 | z8 z4 F,4 | F,12 E,4 | F,4 D,4 C,4 F,4- | F,4 E,4 D,4 D,4 | C,8 z8 | z16 | z8 z4 C,4 | %29
w: ||An|nun- ci-|o vo- bis gau-|* di- um ma-|gnum||quod|
 D,4 F,4 F,4 E,4 | F,8 D,8 | C,8 z4 G,4 | A,4 C4 C4 =B,4 | C8 A,8 | (G,8 C,8-) | C,8 z8 | z16 | %37
w: e- rit o- mni|po- pu-|lo, quod|e- rit o- mni|po- pu-|lo, _|_||
 z8 z4 F,4 | F,4 F,4 G,8 | F,4 D,8 C,4 | _E,4 E,4 D,8 | z4 F,4 G,4 A,4 | (B,12 A,4 | G,8) F,8- | %44
w: qui-|a na- tus|est vo- bis|ho- di- e,|Sal- va- tor|mun- *|* di.|
 F,16- | F,8 z8 | z8 z4 F,4- | F,4 F,4 G,4 F,4 | D,8 E,8 | D,16 | z8 z4 G,4- | G,4 F,4 E,4 D,4 | %52
w: _||Qui|_ est Chri- stus|Do- mi-|nus,|in|_ ci- vi- ta-|
 C,8 B,,8 | F,8 z8 | z4 F,8 E,4 | D,4 C,4 B,,8 | z4 C,4 D,4 E,4 | (F,4 E,4 D,4) B,,4 | C,8 F,8- | %59
w: te Da-|vid,|in ci-|vi- ta- te,|in ci- vi-|ta- * * te|Da- vid,|
 F,8 z4 C,4 | D,4 E,4 (F,4 E,4 | D,4) B,,4 C,8 | F,16 || F,16 | F,12 F,4 | F,8 D,8 | A,16 | F,16 | %68
w: _ in|ci- vi- ta- *|* te Da-|vid,|Et|in- ve-|ni- e-|tis|in-|
 G,16 | F,16- | F,16 | z4 F,4 F,4 F,4 | G,4 F,4 D,8 | z16 | z16 | z4 F,4 F,4 F,4 | (G,4 F,4) (D,8 | %77
w: fan-|tem|_|pan- nis in-|vo- lu- tum,|||pan- nis in-|vo- * lu-|
 C,8) F,8 | z8 F,8 | G,4 A,8 F,4 | G,4 (B,4 A,4) C4- | C4 B,4 A,4 G,4- | G,2 F,2 E,2 D,2 E,4 F,4- | %83
w: * tum,|et|po- si- tum|in prae- * se-|||
 F,4 E,4 F,4 D,4 | C,8 z8 | z8 z4 F,4- | F,4 G,4 A,4 F,4 | B,6 B,2 (A,4 B,4) | G,8 F,8 | %89
w: * * * pi-|o,|et|_ po- si- tum|in prae- se- *|pi- o,|
 z4 C,4 (D,4 E,4 | F,4) G,4 C,4 C4- | C4 =B,4 C4 A,4 | (G,8 F,8) |] %93
w: et po- *|* si- tum in|_ prae- se- pi-|o, _|

